icons/arrow-large-up.svg

<svg xmlns="http://www.w3.org/2000/svg" width="24" height="24" viewBox="0 0 24 24">
  <path d="M12,1 L12.0190181,1.00017973 L12.0190181,1.00017973 L12.0590314,1.0017331 C12.070793,1.00242436 12.0825448,1.00332241 12.0942807,1.00442725 L12.1166211,1.00672773 L12.1166211,1.00672773 L12.1434626,1.01028349 L12.1434626,1.01028349 L12.1764315,1.01559786 C12.1848099,1.01709191 12.1931729,1.01869329 12.2015183,1.020402 C12.2109983,1.02225541 12.2201686,1.02427061 12.2292908,1.02641071 L12.2583,1.03376343 C12.2787573,1.03921168 12.2990754,1.04531929 12.3192208,1.05208628 C12.3354992,1.05752011 12.3511976,1.0632597 12.3667063,1.06937575 C12.3855721,1.07680529 12.4045951,1.08497258 12.423401,1.09375718 C12.4452036,1.10399512 12.4667113,1.11503374 12.4877497,1.12681067 L12.4877715,1.1267352 L12.5114029,1.14038077 C12.5155088,1.1428275 12.5196009,1.1453062 12.5236789,1.14781689 C12.5434998,1.16011914 12.5630943,1.17315715 12.5821867,1.1868509 C12.5951131,1.19602294 12.6082645,1.20595004 12.6212195,1.21624472 C12.6228806,1.21763261 12.6241661,1.21865914 12.625449,1.21968877 L12.7071068,1.29289322 L21.1923882,9.77817459 C21.5829124,10.1686989 21.5829124,10.8018639 21.1923882,11.1923882 C20.8319042,11.5528721 20.2646731,11.5806017 19.8723819,11.2755768 L19.7781746,11.1923882 L12.9997186,4.414 L13,22 C13,22.5522847 12.5522847,23 12,23 C11.4871642,23 11.0644928,22.6139598 11.0067277,22.1166211 L11,22 L10.9997186,4.414 L4.22182541,11.1923882 C3.83130112,11.5829124 3.19813614,11.5829124 2.80761184,11.1923882 C2.44712788,10.8319042 2.41939835,10.2646731 2.72442324,9.87238193 L2.80761184,9.77817459 L11.2928932,1.29289322 L11.374551,1.21968877 C11.3767712,1.21790694 11.3789991,1.21613439 11.3812347,1.21437118 L11.2928932,1.29289322 C11.3345333,1.25125316 11.378932,1.21405301 11.425501,1.18129278 C11.4416996,1.16999617 11.4584717,1.15893353 11.4755862,1.14837237 C11.4912297,1.13863517 11.5064512,1.12981337 11.5218466,1.12142608 C11.5391439,1.11205943 11.5572989,1.10284934 11.5757622,1.09418712 C11.5948444,1.08521338 11.6141449,1.07691653 11.6336374,1.06925531 C11.6501498,1.06272834 11.6672299,1.05652566 11.6845196,1.05078215 C11.7017685,1.04512601 11.7188351,1.03997972 11.7360021,1.03529894 C11.7473921,1.03210493 11.7590111,1.02915513 11.7707092,1.02641071 L11.797254,1.02065418 C11.8168338,1.01661969 11.8365112,1.01317627 11.8562574,1.01032389 C11.8651345,1.00897443 11.8742379,1.00778945 11.8833789,1.00672773 L11.9060177,1.00439921 C11.9176544,1.0033072 11.9293067,1.0024185 11.9409686,1.0017331 L11.980824,1.00018018 C11.9872016,1.00006024 11.9935938,1 12,1 Z"/>
</svg>

<svg xmlns="http://www.w3.org/2000/svg" viewBox="0 0 24 24">
  <path d="M12 1h.06a1 1 0 0 1 .03 0h.03l.02.01h.04a1 1 0 0 1 .05.02h.03a1 1 0 0 1 .23.1l.02.01a1 1 0 0 1 .11.08l.09.07 8.48 8.49a1 1 0 0 1-1.32 1.5l-.1-.09L13 4.41V22a1 1 0 0 1-2 .12V4.4l-6.78 6.8a1 1 0 0 1-1.5-1.32l.09-.1 8.48-8.48.08-.07h.01l-.09.07a1 1 0 0 1 .48-.26h.03a1 1 0 0 1 .08-.02h.03a1 1 0 0 1 .03 0l.04-.01H12z"/>
</svg>
